humanity-icon-theme/Humanity/status/32/dialog-warning.svg

<?xml version="1.0" encoding="UTF-8" standalone="no"?>
<!-- Created with Inkscape (http://www.inkscape.org/) -->
<svg
   xmlns:svg="http://www.w3.org/2000/svg"
   xmlns="http://www.w3.org/2000/svg"
   xmlns:xlink="http://www.w3.org/1999/xlink"
   version="1.0"
   width="32"
   height="32"
   id="svg2526">
  <defs
     id="defs2528">
    <linearGradient
       id="linearGradient8838">
      <stop
         id="stop8840"
         style="stop-color:#000000;stop-opacity:1"
         offset="0" />
      <stop
         id="stop8842"
         style="stop-color:#000000;stop-opacity:0"
         offset="1" />
    </linearGradient>
    <radialGradient
       cx="62.625"
       cy="4.625"
       r="10.625"
       fx="62.625"
       fy="4.625"
       id="radialGradient2517"
       xlink:href="#linearGradient8838"
       gradientUnits="userSpaceOnUse"
       gradientTransform="matrix(1.5058824,0,0,0.37647,-78.305888,26.258824)" />
    <linearGradient
       id="linearGradient2490">
      <stop
         id="stop2492"
         style="stop-color:#791235;stop-opacity:1"
         offset="0" />
      <stop
         id="stop2494"
         style="stop-color:#dd3b27;stop-opacity:1"
         offset="1" />
    </linearGradient>
    <linearGradient
       x1="18.379412"
       y1="44.980297"
       x2="18.379412"
       y2="3.0816143"
       id="linearGradient2503"
       xlink:href="#linearGradient2490"
       gradientUnits="userSpaceOnUse"
       gradientTransform="matrix(0.7126713,0,0,0.7126714,-1.1038781,-1.1043459)" />
    <linearGradient
       id="linearGradient3242">
      <stop
         id="stop3244"
         style="stop-color:#f8b17e;stop-opacity:1"
         offset="0" />
      <stop
         id="stop3246"
         style="stop-color:#e35d4f;stop-opacity:1"
         offset="0.26238" />
      <stop
         id="stop3248"
         style="stop-color:#c6262e;stop-opacity:1"
         offset="0.66093999" />
      <stop
         id="stop3250"
         style="stop-color:#690b54;stop-opacity:1"
         offset="1" />
    </linearGradient>
    <radialGradient
       cx="23.895569"
       cy="3.9900031"
       r="20.397499"
       fx="23.895569"
       fy="3.9900031"
       id="radialGradient2501"
       xlink:href="#linearGradient3242"
       gradientUnits="userSpaceOnUse"
       gradientTransform="matrix(0,1.7009021,-2.2451606,0,24.958431,-40.237079)" />
    <linearGradient
       id="linearGradient4873">
      <stop
         id="stop4875"
         style="stop-color:#ffffff;stop-opacity:1"
         offset="0" />
      <stop
         id="stop4877"
         style="stop-color:#ffffff;stop-opacity:0"
         offset="1" />
    </linearGradient>
    <linearGradient
       x1="63.397362"
       y1="-12.489107"
       x2="63.397362"
       y2="5.4675598"
       id="linearGradient2509"
       xlink:href="#linearGradient4873"
       gradientUnits="userSpaceOnUse"
       gradientTransform="matrix(1.5436509,0,0,1.5436158,-80.015712,21.419381)" />
  </defs>
  <g
     id="layer1">
    <path
       d="M 31.999998,28 C 31.999998,30.209139 24.836553,32 15.999997,32 C 7.1634417,32 -3.2e-06,30.209139 -3.2e-06,28 C -3.2e-06,25.790861 7.1634417,24 15.999997,24 C 24.836553,24 31.999998,25.790861 31.999998,28 L 31.999998,28 z"
       id="path8836"
       style="opacity:0.3;fill:url(#radialGradient2517);fill-opacity:1;fill-rule:evenodd;stroke:none;stroke-width:0.99999988;stroke-linecap:butt;stroke-linejoin:round;marker:none;marker-start:none;marker-mid:none;marker-end:none;stroke-miterlimit:4;stroke-dasharray:none;stroke-dashoffset:0;stroke-opacity:1;visibility:visible;display:inline;overflow:visible" />
    <path
       d="M 16.000235,1.5013587 C 8.0005149,1.5013587 1.5018269,8.0000441 1.5018269,15.999766 C 1.5018269,23.999487 8.0005149,30.498175 16.000235,30.498173 C 23.999952,30.498173 30.498647,23.999487 30.49864,15.999766 C 30.49864,8.0000441 23.999952,1.5013587 16.000235,1.5013587 z"
       id="path2473"
       style="fill:url(#radialGradient2501);fill-opacity:1;stroke:url(#linearGradient2503);stroke-width:1.00365388;stroke-linecap:round;stroke-linejoin:round;stroke-miterlimit:4;stroke-dasharray:none;stroke-dashoffset:0;stroke-opacity:1" />
    <path
       d="M 14.132304,6.502252 C 14.574897,10.591424 15.081865,14.652453 15.458625,18.757641 C 15.837573,18.757641 16.282035,18.757641 16.660982,18.757641 C 16.973494,14.815358 17.477558,10.896896 17.841173,6.959501 C 18.026526,6.027181 17.520434,4.920226 16.479556,4.693714 C 15.45101,4.4092838 14.301869,5.113622 14.165102,6.119712 C 14.14242,6.24601 14.1323,6.374192 14.132305,6.502252 L 14.132304,6.502252 z M 14.00113,23.127672 C 13.954327,24.344863 15.37032,25.299019 16.579303,24.913123 C 17.750289,24.630454 18.367065,23.238372 17.766932,22.248843 C 17.22971,21.225947 15.654336,20.888922 14.748097,21.671786 C 14.29001,22.027753 13.986384,22.559163 14.00113,23.127673 L 14.00113,23.127672 z"
       id="path3295"
       style="font-size:62.4582634px;font-style:normal;font-variant:normal;font-weight:normal;font-stretch:normal;text-align:start;line-height:125%;writing-mode:lr-tb;text-anchor:start;opacity:0.2;fill:#000000;fill-opacity:1;stroke:none;stroke-width:0.5;stroke-linecap:round;stroke-linejoin:round;stroke-miterlimit:4;stroke-dasharray:none;stroke-opacity:1;font-family:Georgia" />
    <path
       d="M 14.132304,7.5022521 C 14.574897,11.591424 15.081865,15.652453 15.458625,19.757642 C 15.837573,19.757642 16.282035,19.757642 16.660982,19.757642 C 16.973494,15.815358 17.477558,11.896897 17.841173,7.9595001 C 18.026526,7.0271801 17.520434,5.9202251 16.479556,5.6937131 C 15.45101,5.4092841 14.301869,6.1136221 14.165102,7.1197121 C 14.14242,7.2460101 14.1323,7.3741921 14.132305,7.5022521 L 14.132304,7.5022521 z M 14.00113,24.127673 C 13.954327,25.344863 15.37032,26.29902 16.579303,25.913124 C 17.750289,25.630455 18.367065,24.238373 17.766932,23.248844 C 17.22971,22.225948 15.654336,21.888923 14.748097,22.671787 C 14.29001,23.027754 13.986384,23.559164 14.00113,24.127674 L 14.00113,24.127673 z"
       id="text2315"
       style="font-size:62.4582634px;font-style:normal;font-variant:normal;font-weight:normal;font-stretch:normal;text-align:start;line-height:125%;writing-mode:lr-tb;text-anchor:start;fill:#ffffff;fill-opacity:1;stroke:none;stroke-width:0.5;stroke-linecap:round;stroke-linejoin:round;stroke-miterlimit:4;stroke-dasharray:none;stroke-opacity:1;font-family:Georgia" />
    <path
       d="M 29.5,15.999522 C 29.5,23.455607 23.455399,29.5 16.000172,29.5 C 8.5442598,29.5 2.5,23.455539 2.5,15.999522 C 2.5,8.5437822 8.5442598,2.5000011 16.000172,2.5000011 C 23.455399,2.5000011 29.5,8.5437822 29.5,15.999522 L 29.5,15.999522 z"
       id="path8655"
       style="opacity:0.4;fill:none;fill-opacity:1;fill-rule:nonzero;stroke:url(#linearGradient2509);stroke-width:1;stroke-miterlimit:4;stroke-dasharray:none;stroke-opacity:1" />
  </g>
</svg>

<?xml version="1.0" encoding="UTF-8" standalone="no"?>
<!-- Created with Inkscape (http://www.inkscape.org/) -->
<svg id="svg2526" xmlns="http://www.w3.org/2000/svg" height="32" width="32" version="1.0" xmlns:xlink="http://www.w3.org/1999/xlink">
 <defs id="defs2528">
  <radialGradient id="radialGradient2517" gradientUnits="userSpaceOnUse" cy="4.625" cx="62.625" gradientTransform="matrix(1.5059 0 0 .37647 -78.306 26.259)" r="10.625">
   <stop id="stop8840" offset="0"/>
   <stop id="stop8842" style="stop-opacity:0" offset="1"/>
  </radialGradient>
  <linearGradient id="linearGradient2503" y2="3.0816" gradientUnits="userSpaceOnUse" x2="18.379" gradientTransform="matrix(.71267 0 0 .71267 -1.1039 -1.1043)" y1="44.98" x1="18.379">
   <stop id="stop2492" style="stop-color:#791235" offset="0"/>
   <stop id="stop2494" style="stop-color:#dd3b27" offset="1"/>
  </linearGradient>
  <radialGradient id="radialGradient2501" gradientUnits="userSpaceOnUse" cy="3.99" cx="23.896" gradientTransform="matrix(0 1.7009 -2.2452 0 24.958 -40.237)" r="20.397">
   <stop id="stop3244" style="stop-color:#f8b17e" offset="0"/>
   <stop id="stop3246" style="stop-color:#e35d4f" offset=".26238"/>
   <stop id="stop3248" style="stop-color:#c6262e" offset=".66094"/>
   <stop id="stop3250" style="stop-color:#690b54" offset="1"/>
  </radialGradient>
  <linearGradient id="linearGradient2509" y2="5.4676" gradientUnits="userSpaceOnUse" x2="63.397" gradientTransform="matrix(1.5437 0 0 1.5436 -80.016 21.419)" y1="-12.489" x1="63.397">
   <stop id="stop4875" style="stop-color:#fff" offset="0"/>
   <stop id="stop4877" style="stop-color:#fff;stop-opacity:0" offset="1"/>
  </linearGradient>
 </defs>
 <g id="layer1">
  <path id="path8836" style="opacity:.3;fill-rule:evenodd;fill:url(#radialGradient2517)" d="m32 28c0 2.209-7.163 4-16 4-8.8366 0-16-1.791-16-4-0.0000032-2.209 7.1634-4 16-4 8.837 0 16 1.791 16 4z"/>
  <path id="path2473" style="stroke-linejoin:round;stroke:url(#linearGradient2503);stroke-linecap:round;stroke-width:1.0037;fill:url(#radialGradient2501)" d="m16 1.5014c-7.9995 0-14.498 6.4986-14.498 14.499-0.0002 7.999 6.4985 14.498 14.498 14.498 8 0 14.499-6.499 14.499-14.498 0-8-6.499-14.499-14.499-14.499z"/>
  <path id="path3295" style="opacity:.2" d="m14.132 6.5023c0.443 4.0887 0.95 8.1497 1.327 12.256h1.202c0.312-3.943 0.817-7.861 1.18-11.798 0.186-0.9328-0.321-2.0398-1.361-2.2663-1.029-0.2844-2.178 0.4199-2.315 1.426-0.023 0.1263-0.033 0.2545-0.033 0.3826zm-0.131 16.626c-0.047 1.217 1.369 2.171 2.578 1.785 1.171-0.283 1.788-1.675 1.188-2.664-0.537-1.023-2.113-1.36-3.019-0.577-0.458 0.356-0.762 0.887-0.747 1.456z"/>
  <path id="text2315" style="fill:#fff" d="m14.132 7.5023c0.443 4.0887 0.95 8.1497 1.327 12.256h1.202c0.312-3.943 0.817-7.861 1.18-11.798 0.186-0.9328-0.321-2.0398-1.361-2.2663-1.029-0.2844-2.178 0.4199-2.315 1.426-0.023 0.1263-0.033 0.2545-0.033 0.3826zm-0.131 16.626c-0.047 1.217 1.369 2.171 2.578 1.785 1.171-0.283 1.788-1.675 1.188-2.664-0.537-1.023-2.113-1.36-3.019-0.577-0.458 0.356-0.762 0.887-0.747 1.456z"/>
  <path id="path8655" style="opacity:.4;stroke:url(#linearGradient2509);fill:none" d="m29.5 16c0 7.456-6.045 13.5-13.5 13.5-7.4557 0-13.5-6.044-13.5-13.5 0-7.4562 6.0443-13.5 13.5-13.5 7.455 0 13.5 6.0438 13.5 13.5z"/>
 </g>
</svg>
